www/assets/icons/fiber_dvr.svg

<svg xmlns="http://www.w3.org/2000/svg" width="24" height="24" viewBox="0 0 24 24" fill='currentColor'><path d="M17.5 10.5h2v1h-2zm-13 0h2v3h-2zM21 3H3c-1.11 0-2 .89-2 2v14a2 2 0 0 0 2 2h18a2 2 0 0 0 2-2V5c0-1.11-.89-2-2-2M8 13.5c0 .85-.65 1.5-1.5 1.5H3V9h3.5c.85 0 1.5.65 1.5 1.5zm4.62 1.5h-1.5L9.37 9h1.5l1 3.43 1-3.43h1.5zM21 11.5c0 .6-.4 1.15-.9 1.4L21 15h-1.5l-.85-2H17.5v2H16V9h3.5c.85 0 1.5.65 1.5 1.5z"/></svg>

<svg width="24" height="24" viewBox="0 0 24 24" xmlns="http://www.w3.org/2000/svg" fill='currentColor'><path d="M17.5 10.5H19.5V11.5H17.5V10.5ZM4.5 10.5H6.5V13.5H4.5V10.5ZM21 3H3C1.89 3 1 3.89 1 5V19C1 20.1 1.89 21 3 21H21C22.11 21 23 20.1 23 19V5C23 3.89 22.11 3 21 3ZM8 13.5C8 14.35 7.35 15 6.5 15H3V9H6.5C7.35 9 8 9.65 8 10.5V13.5ZM12.62 15H11.12L9.37 9H10.87L11.87 12.43L12.87 9H14.37L12.62 15ZM21 11.5C21 12.1 20.6 12.65 20.1 12.9L21 15H19.5L18.65 13H17.5V15H16V9H19.5C20.35 9 21 9.65 21 10.5V11.5Z"/></svg>
